X:1
T:Invention No. 3 in D Major
T:BWV 774
T:J. S. Bach
%%score { 1 | 2 }
L:1/8
Q:3/8=56
M:3/8
K:D
V:1 treble nm="Piano"
V:2 bass 
V:1
"^Allegretto"!mf! !1!D/E/ | (!3!F/!2!E/!4!G/F/E/!1!D/) | (!5!A/G/F/!2!E/!3!F/!1!D/) | %3
 !5!A(!1!B(3c/4)B/4c/4d/ | (3!3!d/4!2!c/4d/4c/(!1!B/<!2!A/)!2!c/d/ | (!5!e/!2!c/f/d/c/B/) | %6
 (!5!e/!3!c/!4!d/!2!B/!1!A/!2!^G/) |!p! (e/c/f/d/c/B/) | (e/c/d/B/A/^G/) |!mf! (!3!c/B/d/c/B/A/) | %10
 .f.!2!^G!tenuto!!1!A- | A/B/(3!3!c/4!2!B/4c/4BA/ | !2!A2 z | z .e!tenuto!a- | %14
 a/!p!!<(!(!1!B/c/^d/!1!e/f/)!<)! |!mf! (g/f/a/g/f/e/) | .b.B z | z .!2!F!tenuto!!4!B- | %18
 B/!p!!<(!(!3!^A/!1!B/c/d/!1!e/)!<)! |!mp! (!3!f/e/!4!g/f/e/!1!d/) | %20
 (!3!e/d/!4!f/!2!e/!1!d/!2!c/) | (!3!d/c/e/d/c/B/) | !4!c(3B/4^A/4B/4A/B- | B/c/(3d/4c/4d/4cB/ | %24
 B/!p!!<(!(F/^G/^A/B/c/)!<)! |!mf! (d/c/e/d/c/B/) | g3- | g3- | g/!p!!<(!(E/F/^G/A/B/)!<)! | %29
!mf! (c/B/d/c/B/A/) | f3- | f3- | f/!p!!<(!(B/e/d/c/B/)!<)! |!mf! (c/B/d/c/B/A/) | %34
 (3A/4^G/4A/4G/ EA/B/ | (c/B/d/c/B/A/) | f>^GA/G/ | A/d/(3c/4B/4c/4BA/ | A>cd/e/ | %39
!<(! FGB/4A/4G/4A/4 | Bd/4c/4B/4c/4d-!<)! |!f! d/(c/e/d/c/d/) |!>(! (e/d/c/B/A/G/)!>)! | %43
!mf! (F/E/G/F/E/D/) | (A/G/F/E/F/D/) | A(B(3c/4)B/4c/4d/ | (3d/4c/4d/4c/(B/<A/)c/d/ | .d.D.d | %48
 .d.D.d |!p! .d.D.d | .d.D!mf!d/e/ | (f/e/g/f/e/d/) | .b.c!tenuto!d- | d/e/(3f/4e/4f/4ed/ | %54
 d.D!tenuto!G- | G/!p!!<(!(A,/B,/C/D/E/)!<)! |!mf! (F/E/G/F/E/D/) | B>CD/C/ | %58
"^poco rall."[Q:3/8=48]!>(! D/G/[Q:3/8=45](3F/4E/4F/4[Q:3/8=42]E[Q:3/8=36]D/!>)! | %59
[Q:3/8=35]!p! !fermata!D3 |] %60
V:2
 z | z3 | z z!mf! !4!D,/E,/ | (!2!F,/!3!E,/!1!G,/F,/E,/!4!D,/) | (!1!A,/G,/F,/!4!E,/F,/D,/) | %5
!p! .A,.A,,.A, | .A,.A,,.A, | .A,.A,,.A, | .A,.A,,.A, | .A,.B,.C | (D/!3!C/E/D/C/B,/) | C/D/EE, | %12
 !2!A,/!<(!(!5!E,/F,/^G,/A,/B,/)!<)! |!mf! (!2!C/!3!B,/!1!D/C/B,/!4!A,/) | .E.E, z | %15
 z .B,!tenuto!E- | E/!p!!<(!(!4!F,/^G,/^A,/!1!B,/!3!C/)!<)! |[K:treble]!mf! (D/C/E/D/C/B,/) | %18
 FF,E |!p! .D(B/^A/B) | .C(^A/^G/A) | (B/!courtesy!=A/!courtesy!=G/F/E/D/) | (E/D/F/E/D/C/) | %23
[K:bass] D/E/FF, | B,F,D, | B,,2 z | z/!p!!<(! (B,,/C,/^D,/E,/F,/)!<)! |!mf! (G,/F,/A,/G,/F,/E,/) | %28
 A,3- | A,3- | A,/!p!!<(!(A,,/B,,/C,/D,/E,/)!<)! |!mf! (F,/E,/G,/F,/E,/D,/) | ^G,>!p!E,F,/G,/ | %33
 (A,/^G,/F,/E,/D,/E,/) | (E,/D,/C,/B,,/C,/A,,/) | A,F,C, | (D,/C,/E,/D,/C,/A,,/) | C,/D,/E,E,, | %38
 A,,/(C,/D,/E,/F,/G,/) | (A,/G,/B,/A,/G,/F,/) | (G,/F,/A,/G,/F,/E,/) | (F,/E,/G,/F,/E,/D,/) | %42
 A,A,, z | z3 | z z!mf! D,/E,/ | (F,/E,/G,/F,/E,/D,/) | (A,/G,/F,/E,/F,/D,/) | %47
!p! (A,/F,/B,/G,/F,/E,/) | (A,/F,/G,/E,/D,/C,/) | (A,/F,/B,/G,/F,/E,/) | (A,/F,/G,/E,/D,/C,/) | %51
!mf! D,E,F, | (G,/F,/A,/G,/F,/E,/) | F,/G,/A,A,, | (B,,/A,,/=C,/B,,/A,,/G,,/) | D,3- | %56
 D,/(C,/B,,/A,,/G,,/F,,/) | (G,,/F,,/A,,/G,,/F,,/E,,/) | F,,/G,,/ A,,2 | !fermata!D,,3 |] %60

